!!!SOCIAL_FUNCTION:	songs connected with gathering clover
!!!PDT:	1958
!!!OTL: No_31_Song_of_the_Sand-Hill_Cranes.krn
!!!REG: Northern California
!!!LANG: Non-Tone
!!!LING_GROUP: Penutian
**kern
*staff1
=1-
*clefF4
*k[b-e-]
*M3/8
4r
16F\LL
16F\JJ
=2
8F\L
16d\L
16d\J
8d\J
=3
16.f\LL
32c\JK
8c\
(16B-\L
16F\JJ)
=4
8B-\
8.r
16e-\
=5
4d\
16B-\LL
16B-\JJ
=6
(16c\LL
16B-\)
(16B-\
16F\JJ)
16r
16e-\
=7
=
8d\L
16f\L
16c\J
8c\J
=8
(16c\LL
16B-\)
(16B-\
16F\JJ)
16r
16e-\
=9
4d\
16B-\LL
16B-\JJ
=10
(16c\LL
16B-\)
(16B-\
16F\JJ)
16r
16f\
=11
16f\LL
16d\
(16e-\
16d\)
(16d\
16c\JJ)
=12
4d\
16B-\LL
16B-\JJ
=13
8B-\L
8F\J
16r
16f\
=14
16f\LL
16f\
16f\
16d\
(16d\
16c\JJ)
=15
4d\
16B-\LL
16B-\JJ
=16
8B-\L
8F\J
8r
==:|!
*-
